packages/react/src/components/base/Icon/assets/icon-neurodivergence.svg

<svg width="24" height="24" viewBox="0 0 24 24" xmlns="http://www.w3.org/2000/svg" fill="currentColor"> <path d="M18.3729 22.4995C17.9997 22.4995 17.6772 22.222 17.6294 21.8423L16.8794 15.8423C16.8457 15.5751 16.9582 15.3108 17.1738 15.1495C18.8641 13.882 19.8738 11.8626 19.8738 9.74951C19.8738 6.02764 16.8457 2.99951 13.1238 2.99951C9.40192 2.99951 6.3738 6.02764 6.3738 9.74951C6.3738 9.87045 6.34474 9.98857 6.28942 10.0954L4.12661 14.2523L6.68599 15.4242C6.95224 15.5461 7.1238 15.8123 7.1238 16.1058V19.4986H11.6238C12.0382 19.4986 12.3738 19.8342 12.3738 20.2486C12.3738 20.663 12.0382 20.9986 11.6238 20.9986H7.1238C6.29692 20.9986 5.6238 20.3254 5.6238 19.4986V16.5876L3.47599 15.6042C3.46849 15.6004 3.46005 15.5967 3.45255 15.5929C2.74474 15.2386 2.43442 14.3901 2.74567 13.6617C2.75317 13.6448 2.76161 13.627 2.77005 13.6111L4.87661 9.56201C4.97692 5.09951 8.63786 1.49951 13.1247 1.49951C17.6116 1.49951 21.3747 5.20076 21.3747 9.74951C21.3747 12.1842 20.2779 14.5167 18.4216 16.0748L19.1191 21.6567C19.1707 22.0673 18.8791 22.4423 18.4675 22.4939C18.4357 22.4976 18.4047 22.4995 18.3738 22.4995H18.3729Z"/> <path d="M13.2663 12.6239C13.2663 12.6239 9.56505 10.6308 9.56505 8.28139C9.56505 7.2192 10.4257 6.35951 11.4869 6.35951C12.2913 6.35951 12.9804 6.79732 13.2663 7.49857C13.5541 6.79732 14.2422 6.35951 15.0457 6.35951C16.1079 6.35951 16.9675 7.22014 16.9675 8.28139C16.9675 10.6308 13.2663 12.6239 13.2663 12.6239Z"/> </svg>

<svg viewBox="0 0 24 24" xmlns="http://www.w3.org/2000/svg" aria-hidden="true" fill="currentColor"><path d="M18.373 22.5a.75.75 0 0 1-.744-.658l-.75-6a.75.75 0 0 1 .295-.693 6.78 6.78 0 0 0 2.7-5.4A6.76 6.76 0 0 0 13.124 3a6.76 6.76 0 0 0-6.75 6.75c0 .121-.03.24-.085.346l-2.162 4.157 2.559 1.172a.75.75 0 0 1 .438.682v3.393h4.5a.75.75 0 1 1 0 1.5h-4.5c-.827 0-1.5-.674-1.5-1.5v-2.911l-2.148-.984-.023-.011a1.5 1.5 0 0 1-.683-1.982l2.107-4.049C4.977 5.1 8.637 1.5 13.125 1.5s8.25 3.7 8.25 8.25a8.3 8.3 0 0 1-2.953 6.325l.697 5.582a.75.75 0 0 1-.745.843z"/><path d="M13.266 12.624S9.565 10.63 9.565 8.28c0-1.062.86-1.921 1.922-1.921.804 0 1.493.437 1.78 1.139.287-.702.975-1.14 1.779-1.14 1.062 0 1.922.861 1.922 1.922 0 2.35-3.702 4.343-3.702 4.343"/></svg>
